public/icons/instagram.svg

<svg width="48" height="48" viewBox="0 0 48 48" fill="none" xmlns="http://www.w3.org/2000/svg">
    <rect x="0.5" y="0.5" width="47" height="47" rx="23.5" stroke="white" />
    <path
        d="M24 20.0264C21.8074 20.0264 20.0264 21.8074 20.0264 24C20.0264 26.1927 21.8074 27.978 24 27.978C26.1927 27.978 27.978 26.1927 27.978 24C27.978 21.8074 26.1927 20.0264 24 20.0264Z"
        fill="white" />
    <path
        d="M29.9977 13.167H18.003C15.338 13.167 13.167 15.338 13.167 18.003V29.9977C13.167 32.667 15.338 34.8337 18.003 34.8337H29.9977C32.667 34.8337 34.8337 32.667 34.8337 29.9977V18.003C34.8337 15.338 32.667 13.167 29.9977 13.167ZM24.0003 31.0203C20.1307 31.0203 16.9803 27.87 16.9803 24.0003C16.9803 20.1307 20.1307 16.9847 24.0003 16.9847C27.87 16.9847 31.0203 20.1307 31.0203 24.0003C31.0203 27.87 27.87 31.0203 24.0003 31.0203ZM31.1677 18.2587C30.3487 18.2587 29.6813 17.5957 29.6813 16.7767C29.6813 15.9577 30.3487 15.2903 31.1677 15.2903C31.9867 15.2903 32.654 15.9577 32.654 16.7767C32.654 17.5957 31.9867 18.2587 31.1677 18.2587Z"
        fill="white" />
</svg>

<svg xmlns="http://www.w3.org/2000/svg" width="48" height="48" fill="none"><rect width="47" height="47" x=".5" y=".5" stroke="#fff" rx="23.5"/><path fill="#fff" d="M24 20.026a3.976 3.976 0 0 0 0 7.952A3.984 3.984 0 0 0 27.978 24 3.98 3.98 0 0 0 24 20.026Z"/><path fill="#fff" d="M29.998 13.167H18.003a4.844 4.844 0 0 0-4.836 4.836v11.995a4.84 4.84 0 0 0 4.836 4.836h11.995a4.838 4.838 0 0 0 4.836-4.836V18.003a4.84 4.84 0 0 0-4.836-4.836ZM24 31.02c-3.87 0-7.02-3.15-7.02-7.02 0-3.87 3.15-7.015 7.02-7.015 3.87 0 7.02 3.146 7.02 7.015 0 3.87-3.15 7.02-7.02 7.02Zm7.168-12.761a1.485 1.485 0 0 1-1.487-1.482c0-.82.668-1.487 1.487-1.487a1.485 1.485 0 1 1 0 2.968Z"/></svg>
